Newaita/actions/24/visibility.svg

<svg height="24" viewBox="0 0 24 24" width="24" xmlns="http://www.w3.org/2000/svg"><g fill="#424242"><path d="m11.90625 6.144531c-4.554688 0-8.488281 2.660157-10.316406 6.519531-.15625.320313-.128906.699219.074218.996094.199219.292969.542969.457032.898438.425782s.667969-.253907.816406-.578126c1.507813-3.1875 4.738282-5.386718 8.527344-5.386718s7.023438 2.199218 8.53125 5.386718c.148438.324219.457031.546876.8125.578126s.699219-.132813.902344-.425782c.199218-.296875.226562-.675781.070312-.996094-1.824218-3.859374-5.761718-6.519531-10.316406-6.519531zm0 0"/><path d="m11.90625 6.140625c-3.296875 0-5.953125 2.65625-5.953125 5.953125 0 3.300781 2.65625 5.953125 5.953125 5.953125 3.300781 0 5.953125-2.652344 5.953125-5.953125 0-3.296875-2.652344-5.953125-5.953125-5.953125zm0 1.984375c2.199219 0 3.96875 1.769531 3.96875 3.96875s-1.769531 3.96875-3.96875 3.96875-3.96875-1.769531-3.96875-3.96875 1.769531-3.96875 3.96875-3.96875zm0 0"/><path d="m11.90625 10.109375c-1.097656 0-1.984375.851563-1.984375 1.90625v.160156c0 1.054688.886719 1.902344 1.984375 1.902344 1.101562 0 1.984375-.847656 1.984375-1.902344v-.160156c0-1.054687-.882813-1.90625-1.984375-1.90625zm0 .992187c.550781 0 .992188.425782.992188.953126v.082031c0 .527343-.441407.949219-.992188.949219-.546875 0-.992188-.421876-.992188-.949219v-.082031c0-.527344.445313-.953126.992188-.953126zm0 0"/></g></svg>

<?xml version="1.0" encoding="UTF-8"?>
<svg xmlns="http://www.w3.org/2000/svg" xmlns:xlink="http://www.w3.org/1999/xlink" width="24px" height="24px" viewBox="0 0 24 24" version="1.1">
<g id="surface1">
<path style=" stroke:none;fill-rule:nonzero;fill:rgb(25.882354%,25.882354%,25.882354%);fill-opacity:1;" d="M 11.90625 6.144531 C 7.351562 6.144531 3.417969 8.804688 1.589844 12.664062 C 1.433594 12.984375 1.460938 13.363281 1.664062 13.660156 C 1.863281 13.953125 2.207031 14.117188 2.5625 14.085938 C 2.917969 14.054688 3.230469 13.832031 3.378906 13.507812 C 4.886719 10.320312 8.117188 8.121094 11.90625 8.121094 C 15.695312 8.121094 18.929688 10.320312 20.4375 13.507812 C 20.585938 13.832031 20.894531 14.054688 21.25 14.085938 C 21.605469 14.117188 21.949219 13.953125 22.152344 13.660156 C 22.351562 13.363281 22.378906 12.984375 22.222656 12.664062 C 20.398438 8.804688 16.460938 6.144531 11.90625 6.144531 Z M 11.90625 6.144531 "/>
<path style=" stroke:none;fill-rule:nonzero;fill:rgb(25.882354%,25.882354%,25.882354%);fill-opacity:1;" d="M 11.90625 6.140625 C 8.609375 6.140625 5.953125 8.796875 5.953125 12.09375 C 5.953125 15.394531 8.609375 18.046875 11.90625 18.046875 C 15.207031 18.046875 17.859375 15.394531 17.859375 12.09375 C 17.859375 8.796875 15.207031 6.140625 11.90625 6.140625 Z M 11.90625 8.125 C 14.105469 8.125 15.875 9.894531 15.875 12.09375 C 15.875 14.292969 14.105469 16.0625 11.90625 16.0625 C 9.707031 16.0625 7.9375 14.292969 7.9375 12.09375 C 7.9375 9.894531 9.707031 8.125 11.90625 8.125 Z M 11.90625 8.125 "/>
<path style=" stroke:none;fill-rule:nonzero;fill:rgb(25.882354%,25.882354%,25.882354%);fill-opacity:1;" d="M 11.90625 10.109375 C 10.808594 10.109375 9.921875 10.960938 9.921875 12.015625 L 9.921875 12.175781 C 9.921875 13.230469 10.808594 14.078125 11.90625 14.078125 C 13.007812 14.078125 13.890625 13.230469 13.890625 12.175781 L 13.890625 12.015625 C 13.890625 10.960938 13.007812 10.109375 11.90625 10.109375 Z M 11.90625 11.101562 C 12.457031 11.101562 12.898438 11.527344 12.898438 12.054688 L 12.898438 12.136719 C 12.898438 12.664062 12.457031 13.085938 11.90625 13.085938 C 11.359375 13.085938 10.914062 12.664062 10.914062 12.136719 L 10.914062 12.054688 C 10.914062 11.527344 11.359375 11.101562 11.90625 11.101562 Z M 11.90625 11.101562 "/>
</g>
</svg>
